build/img/0-common/angle.svg

<svg width="6" height="10" viewBox="0 0 6 10" fill="none" xmlns="http://www.w3.org/2000/svg">
<path d="M5.7154 4.6098L1.26527 0.159755C1.16235 0.0567475 1.02495 0 0.878448 0C0.731945 0 0.594548 0.0567475 0.491622 0.159755L0.163901 0.487394C-0.0493491 0.700889 -0.0493491 1.04788 0.163901 1.26105L3.90078 4.99793L0.159755 8.73895C0.0568288 8.84196 0 8.97928 0 9.1257C0 9.27228 0.0568288 9.4096 0.159755 9.51269L0.487476 9.84025C0.590483 9.94325 0.727799 10 0.874302 10C1.02081 10 1.1582 9.94325 1.26113 9.84025L5.7154 5.38614C5.81857 5.2828 5.87524 5.14484 5.87491 4.99817C5.87524 4.85094 5.81857 4.71305 5.7154 4.6098Z" fill="#333333"/>
</svg>

<svg width="6" height="10" fill="none" xmlns="http://www.w3.org/2000/svg"><path d="M5.715 4.61L1.265.16A.543.543 0 00.878 0a.543.543 0 00-.386.16L.164.487a.548.548 0 000 .774L3.9 4.998.16 8.739a.543.543 0 00-.16.387c0 .146.057.284.16.387l.327.327c.103.103.24.16.387.16a.543.543 0 00.387-.16l4.454-4.454a.544.544 0 00.16-.388.544.544 0 00-.16-.388z" fill="#333"/></svg>
